Newaita-dark/.DP/22/weather-windy.svg

<svg xmlns="http://www.w3.org/2000/svg" xmlns:xlink="http://www.w3.org/1999/xlink" width="22px" height="22px" viewBox="0 0 22 22" version="1.1">
<defs>
<radialGradient id="radial0" gradientUnits="userSpaceOnUse" cx="450.908997" cy="189.578995" fx="450.908997" fy="189.578995" r="21.167" gradientTransform="matrix(0,-0.0537212,-0.09669,0,29.926874,41.87975)">
<stop offset="0" style="stop-color:rgb(0%,0%,0%);stop-opacity:0.314;"/>
<stop offset="0.222" style="stop-color:rgb(0%,0%,0%);stop-opacity:0.275;"/>
<stop offset="1" style="stop-color:rgb(0%,0%,0%);stop-opacity:0;"/>
</radialGradient>
<radialGradient id="radial1" gradientUnits="userSpaceOnUse" cx="450.908997" cy="189.578995" fx="450.908997" fy="189.578995" r="21.167" gradientTransform="matrix(0,0.0537212,0.09669,0,-6.27825,-7.016625)">
<stop offset="0" style="stop-color:rgb(0%,0%,0%);stop-opacity:0.314;"/>
<stop offset="0.222" style="stop-color:rgb(0%,0%,0%);stop-opacity:0.275;"/>
<stop offset="1" style="stop-color:rgb(0%,0%,0%);stop-opacity:0;"/>
</radialGradient>
<radialGradient id="radial2" gradientUnits="userSpaceOnUse" cx="450.908997" cy="189.578995" fx="450.908997" fy="189.578995" r="21.167" gradientTransform="matrix(0,-0.0537212,0.09669,0,-6.27825,41.87975)">
<stop offset="0" style="stop-color:rgb(0%,0%,0%);stop-opacity:0.314;"/>
<stop offset="0.222" style="stop-color:rgb(0%,0%,0%);stop-opacity:0.275;"/>
<stop offset="1" style="stop-color:rgb(0%,0%,0%);stop-opacity:0;"/>
</radialGradient>
<radialGradient id="radial3" gradientUnits="userSpaceOnUse" cx="450.908997" cy="189.578995" fx="450.908997" fy="189.578995" r="21.167" gradientTransform="matrix(0,0.0537212,-0.09669,0,29.926874,-7.016625)">
<stop offset="0" style="stop-color:rgb(0%,0%,0%);stop-opacity:0.314;"/>
<stop offset="0.222" style="stop-color:rgb(0%,0%,0%);stop-opacity:0.275;"/>
<stop offset="1" style="stop-color:rgb(0%,0%,0%);stop-opacity:0;"/>
</radialGradient>
<linearGradient id="linear0" gradientUnits="userSpaceOnUse" x1="1040" y1="1535.118042" x2="1040" y2="295.118011" gradientTransform="matrix(0.0113699,0.00017504,-0.00017504,0.0113699,0,0)">
<stop offset="0" style="stop-color:rgb(69.01961%,74.509805%,77.254903%);stop-opacity:1;"/>
<stop offset="1" style="stop-color:rgb(81.176472%,84.705883%,86.274511%);stop-opacity:1;"/>
</linearGradient>
</defs>
<g id="surface1">
<path style=" stroke:none;fill-rule:nonzero;fill:url(#radial0);" d="M 11.828125 17.429688 L 13.640625 17.429688 L 13.640625 16.523438 L 11.828125 16.523438 Z M 11.828125 17.429688 "/>
<path style=" stroke:none;fill-rule:nonzero;fill:url(#radial1);" d="M 11.828125 17.429688 L 10.007812 17.429688 L 10.007812 18.34375 L 11.828125 18.34375 Z M 11.828125 17.429688 "/>
<path style=" stroke:none;fill-rule:nonzero;fill:url(#radial2);" d="M 11.828125 17.429688 L 10.007812 17.429688 L 10.007812 16.523438 L 11.828125 16.523438 Z M 11.828125 17.429688 "/>
<path style=" stroke:none;fill-rule:nonzero;fill:url(#radial3);" d="M 11.828125 17.429688 L 13.640625 17.429688 L 13.640625 18.34375 L 11.828125 18.34375 Z M 11.828125 17.429688 "/>
<path style=" stroke:none;fill-rule:nonzero;fill:url(#linear0);" d="M 10.230469 3.378906 C 9.628906 3.378906 9.050781 3.613281 8.625 4.042969 C 8.203125 4.46875 7.960938 5.046875 7.960938 5.648438 C 7.960938 6.164062 8.125 6.632812 8.410156 7.015625 L 4.550781 7.015625 C 4.296875 7.015625 4.09375 7.21875 4.09375 7.472656 C 4.09375 7.722656 4.296875 7.929688 4.550781 7.929688 L 10.230469 7.929688 C 11.492188 7.929688 12.507812 6.914062 12.507812 5.648438 C 12.507812 4.394531 11.492188 3.378906 10.230469 3.378906 Z M 17.285156 3.378906 C 16.023438 3.378906 15.007812 4.394531 15.007812 5.648438 C 15.007812 6.164062 15.179688 6.632812 15.457031 7.015625 L 13.003906 7.015625 C 12.847656 7.375 12.59375 7.691406 12.285156 7.929688 L 16.828125 7.929688 C 16.875 7.929688 16.925781 7.917969 16.96875 7.902344 C 17.070312 7.917969 17.175781 7.929688 17.285156 7.929688 C 18.539062 7.929688 19.554688 6.914062 19.554688 5.648438 C 19.554688 5.046875 19.320312 4.46875 18.890625 4.042969 C 18.464844 3.613281 17.886719 3.378906 17.285156 3.378906 Z M 7.730469 9.265625 C 7.476562 9.265625 7.273438 9.46875 7.277344 9.722656 C 7.273438 9.972656 7.476562 10.179688 7.730469 10.179688 L 15.457031 10.179688 C 15.164062 10.570312 15.007812 11.054688 15.007812 11.542969 C 15.007812 12.800781 16.023438 13.8125 17.285156 13.8125 C 17.886719 13.8125 18.464844 13.578125 18.890625 13.148438 C 19.3125 12.722656 19.554688 12.144531 19.554688 11.542969 C 19.554688 10.28125 18.539062 9.265625 17.285156 9.265625 Z M 2.277344 12.90625 C 2.023438 12.90625 1.820312 13.109375 1.820312 13.363281 C 1.820312 13.609375 2.023438 13.8125 2.277344 13.8125 L 10.007812 13.8125 C 9.710938 14.207031 9.554688 14.683594 9.554688 15.179688 C 9.554688 16.441406 10.566406 17.457031 11.828125 17.457031 C 13.089844 17.457031 14.097656 16.441406 14.097656 15.179688 C 14.097656 13.921875 13.089844 12.90625 11.828125 12.90625 Z M 2.277344 12.90625 "/>
<path style=" stroke:none;fill-rule:nonzero;fill:rgb(99.607843%,99.607843%,99.607843%);fill-opacity:0.392;" d="M 10.230469 3.378906 C 9.628906 3.378906 9.050781 3.613281 8.625 4.042969 C 8.203125 4.46875 7.960938 5.046875 7.960938 5.648438 L 7.960938 5.753906 C 8.011719 4.539062 9.019531 3.582031 10.230469 3.582031 C 11.457031 3.582031 12.449219 4.542969 12.503906 5.753906 C 12.503906 5.71875 12.507812 5.6875 12.507812 5.648438 C 12.507812 4.394531 11.492188 3.378906 10.230469 3.378906 Z M 17.285156 3.378906 C 16.667969 3.378906 16.070312 3.632812 15.640625 4.078125 C 15.210938 4.527344 14.984375 5.132812 15.011719 5.753906 C 15.066406 4.539062 16.066406 3.578125 17.285156 3.582031 C 18.507812 3.582031 19.503906 4.542969 19.554688 5.753906 L 19.554688 5.648438 C 19.554688 5.046875 19.320312 4.46875 18.890625 4.042969 C 18.464844 3.613281 17.886719 3.378906 17.285156 3.378906 Z M 4.550781 7.015625 C 4.410156 7.015625 4.273438 7.078125 4.1875 7.1875 C 4.101562 7.292969 4.070312 7.4375 4.101562 7.574219 C 4.144531 7.363281 4.335938 7.21875 4.550781 7.21875 L 8.410156 7.21875 C 8.363281 7.15625 8.3125 7.085938 8.273438 7.015625 Z M 13.003906 7.015625 C 12.84375 7.375 12.59375 7.691406 12.285156 7.929688 L 12.519531 7.929688 C 12.722656 7.722656 12.886719 7.488281 13.003906 7.21875 L 15.457031 7.21875 C 15.410156 7.15625 15.367188 7.085938 15.324219 7.015625 Z M 7.730469 9.265625 C 7.589844 9.265625 7.460938 9.328125 7.375 9.4375 C 7.289062 9.550781 7.257812 9.6875 7.289062 9.824219 C 7.335938 9.621094 7.519531 9.476562 7.730469 9.476562 L 17.285156 9.476562 C 18.507812 9.476562 19.503906 10.429688 19.554688 11.644531 L 19.554688 11.542969 C 19.554688 10.28125 18.539062 9.265625 17.285156 9.265625 Z M 15.324219 10.382812 C 15.097656 10.761719 14.992188 11.203125 15.011719 11.644531 C 15.035156 11.171875 15.195312 10.738281 15.457031 10.382812 Z M 2.277344 12.90625 C 2.136719 12.90625 2.007812 12.972656 1.917969 13.078125 C 1.832031 13.1875 1.800781 13.332031 1.832031 13.464844 C 1.878906 13.253906 2.0625 13.109375 2.277344 13.109375 L 11.828125 13.109375 C 13.050781 13.109375 14.046875 14.070312 14.097656 15.28125 L 14.097656 15.179688 C 14.097656 13.921875 13.089844 12.90625 11.828125 12.90625 Z M 9.867188 14.023438 C 9.664062 14.375 9.554688 14.769531 9.554688 15.179688 L 9.554688 15.28125 C 9.578125 14.808594 9.742188 14.375 10.007812 14.023438 Z M 9.867188 14.023438 "/>
<path style=" stroke:none;fill-rule:nonzero;fill:rgb(0%,0%,0%);fill-opacity:0.235;" d="M 7.960938 5.539062 L 7.960938 5.648438 C 7.960938 6.0625 8.066406 6.457031 8.261719 6.789062 L 8.410156 6.789062 C 8.140625 6.421875 7.988281 5.988281 7.960938 5.539062 Z M 15.011719 5.539062 C 15.007812 5.574219 15.007812 5.613281 15.007812 5.648438 C 15.007812 6.0625 15.121094 6.457031 15.3125 6.789062 L 15.457031 6.789062 C 15.1875 6.429688 15.035156 5.988281 15.011719 5.539062 Z M 12.503906 5.539062 C 12.449219 6.75 11.445312 7.703125 10.230469 7.695312 L 4.550781 7.695312 C 4.34375 7.695312 4.164062 7.558594 4.109375 7.359375 C 4.078125 7.492188 4.109375 7.636719 4.195312 7.75 C 4.28125 7.863281 4.410156 7.929688 4.550781 7.929688 L 10.230469 7.929688 C 11.492188 7.929688 12.507812 6.914062 12.507812 5.648438 C 12.507812 5.613281 12.503906 5.574219 12.503906 5.539062 Z M 19.550781 5.539062 C 19.523438 6.175781 19.226562 6.773438 18.734375 7.179688 C 18.242188 7.589844 17.601562 7.765625 16.96875 7.675781 C 16.925781 7.691406 16.875 7.695312 16.828125 7.695312 L 12.542969 7.695312 C 12.460938 7.777344 12.375 7.859375 12.285156 7.929688 L 16.828125 7.929688 C 16.875 7.929688 16.925781 7.917969 16.96875 7.902344 C 17.070312 7.917969 17.175781 7.929688 17.285156 7.929688 C 18.539062 7.929688 19.554688 6.914062 19.554688 5.648438 C 19.554688 5.613281 19.554688 5.574219 19.550781 5.539062 Z M 7.289062 9.609375 C 7.28125 9.648438 7.277344 9.683594 7.277344 9.722656 C 7.273438 9.972656 7.476562 10.179688 7.730469 10.179688 L 15.3125 10.179688 C 15.355469 10.097656 15.402344 10.023438 15.457031 9.953125 L 7.730469 9.953125 C 7.519531 9.953125 7.34375 9.808594 7.289062 9.609375 Z M 19.550781 11.429688 C 19.492188 12.636719 18.492188 13.589844 17.285156 13.589844 C 16.070312 13.589844 15.070312 12.636719 15.011719 11.429688 C 15.007812 11.46875 15.007812 11.503906 15.007812 11.542969 C 15.007812 12.800781 16.023438 13.8125 17.285156 13.8125 C 17.886719 13.8125 18.464844 13.578125 18.890625 13.148438 C 19.3125 12.722656 19.554688 12.144531 19.554688 11.542969 C 19.554688 11.503906 19.554688 11.46875 19.550781 11.429688 Z M 1.835938 13.246094 C 1.800781 13.378906 1.832031 13.523438 1.917969 13.636719 C 2.003906 13.75 2.136719 13.8125 2.277344 13.8125 L 9.855469 13.8125 C 9.898438 13.738281 9.953125 13.660156 10.007812 13.589844 L 2.277344 13.589844 C 2.066406 13.59375 1.886719 13.449219 1.835938 13.246094 Z M 14.097656 15.066406 C 14.039062 16.28125 13.039062 17.230469 11.828125 17.226562 C 10.613281 17.230469 9.613281 16.28125 9.554688 15.066406 L 9.554688 15.179688 C 9.554688 16.441406 10.566406 17.457031 11.828125 17.457031 C 13.089844 17.457031 14.097656 16.441406 14.097656 15.179688 Z M 14.097656 15.066406 "/>
<path style=" stroke:none;fill-rule:nonzero;fill:rgb(12.941177%,12.941177%,12.941177%);fill-opacity:1;" d="M 10.230469 3.3125 C 8.9375 3.3125 7.894531 4.355469 7.894531 5.648438 C 7.894531 6.132812 8.039062 6.578125 8.289062 6.949219 L 4.550781 6.949219 C 4.28125 6.972656 4.066406 7.195312 4.066406 7.472656 C 4.066406 7.746094 4.28125 7.96875 4.550781 7.992188 L 10.230469 7.992188 C 11.082031 8.011719 11.875 7.574219 12.304688 6.835938 C 12.734375 6.105469 12.734375 5.199219 12.304688 4.46875 C 11.875 3.734375 11.082031 3.292969 10.230469 3.3125 Z M 17.285156 3.3125 C 16.417969 3.3125 15.628906 3.785156 15.222656 4.550781 C 14.8125 5.304688 14.855469 6.234375 15.339844 6.949219 L 13.003906 6.949219 C 12.976562 6.949219 12.949219 6.964844 12.945312 6.988281 C 12.792969 7.335938 12.550781 7.644531 12.246094 7.875 C 12.21875 7.890625 12.214844 7.917969 12.21875 7.945312 C 12.230469 7.96875 12.257812 7.992188 12.285156 7.992188 L 16.828125 7.992188 C 16.875 7.992188 16.925781 7.980469 16.972656 7.96875 C 17.074219 7.980469 17.175781 7.992188 17.285156 7.992188 C 18.578125 7.992188 19.621094 6.945312 19.621094 5.648438 C 19.621094 4.355469 18.578125 3.3125 17.285156 3.3125 Z M 10.230469 3.441406 C 11.449219 3.441406 12.4375 4.429688 12.4375 5.65625 C 12.4375 6.875 11.449219 7.863281 10.230469 7.863281 L 4.550781 7.863281 C 4.445312 7.863281 4.34375 7.824219 4.273438 7.75 C 4.199219 7.675781 4.15625 7.578125 4.15625 7.472656 C 4.15625 7.25 4.328125 7.078125 4.550781 7.078125 L 8.410156 7.078125 C 8.4375 7.078125 8.460938 7.070312 8.46875 7.046875 C 8.480469 7.019531 8.476562 7 8.464844 6.976562 C 8.179688 6.59375 8.023438 6.128906 8.023438 5.648438 C 8.023438 5.066406 8.253906 4.5 8.667969 4.085938 C 9.082031 3.671875 9.648438 3.441406 10.230469 3.441406 Z M 17.285156 3.441406 C 17.871094 3.441406 18.433594 3.671875 18.847656 4.085938 C 19.261719 4.5 19.492188 5.066406 19.492188 5.648438 C 19.492188 6.289062 19.21875 6.902344 18.734375 7.320312 C 18.25 7.738281 17.613281 7.933594 16.976562 7.84375 C 16.96875 7.835938 16.957031 7.835938 16.945312 7.84375 C 16.90625 7.851562 16.867188 7.863281 16.828125 7.863281 L 12.460938 7.863281 C 12.707031 7.644531 12.90625 7.378906 13.039062 7.078125 L 15.457031 7.078125 C 15.484375 7.078125 15.507812 7.070312 15.515625 7.046875 C 15.527344 7.019531 15.527344 7 15.511719 6.976562 C 15.238281 6.605469 15.070312 6.148438 15.070312 5.648438 C 15.070312 4.425781 16.058594 3.441406 17.285156 3.441406 Z M 7.730469 9.199219 C 7.4375 9.199219 7.207031 9.4375 7.214844 9.722656 C 7.214844 10.011719 7.445312 10.242188 7.730469 10.242188 L 15.339844 10.242188 C 14.855469 10.957031 14.8125 11.878906 15.214844 12.644531 C 15.625 13.40625 16.417969 13.878906 17.285156 13.878906 C 18.578125 13.878906 19.621094 12.835938 19.621094 11.542969 C 19.621094 10.25 18.578125 9.199219 17.285156 9.199219 Z M 7.730469 9.328125 L 17.285156 9.328125 C 18.507812 9.328125 19.492188 10.316406 19.492188 11.542969 C 19.492188 12.128906 19.261719 12.691406 18.847656 13.105469 C 18.433594 13.519531 17.871094 13.75 17.285156 13.75 C 16.058594 13.75 15.070312 12.765625 15.070312 11.542969 C 15.070312 11.042969 15.238281 10.585938 15.511719 10.214844 C 15.527344 10.195312 15.527344 10.171875 15.515625 10.144531 C 15.507812 10.125 15.484375 10.113281 15.457031 10.113281 L 7.730469 10.113281 C 7.625 10.113281 7.523438 10.070312 7.453125 10 C 7.378906 9.925781 7.34375 9.824219 7.34375 9.722656 C 7.34375 9.507812 7.515625 9.328125 7.730469 9.328125 Z M 2.277344 12.84375 C 1.992188 12.84375 1.757812 13.074219 1.757812 13.363281 C 1.757812 13.648438 1.992188 13.878906 2.277344 13.878906 L 9.882812 13.878906 C 9.410156 14.597656 9.363281 15.515625 9.769531 16.28125 C 10.179688 17.039062 10.96875 17.515625 11.828125 17.519531 C 13.121094 17.519531 14.164062 16.472656 14.164062 15.179688 C 14.164062 13.882812 13.121094 12.84375 11.828125 12.84375 Z M 2.277344 12.972656 L 11.828125 12.972656 C 12.414062 12.972656 12.976562 13.203125 13.390625 13.617188 C 13.804688 14.027344 14.035156 14.59375 14.035156 15.179688 C 14.035156 16.402344 13.050781 17.390625 11.828125 17.390625 C 10.601562 17.390625 9.621094 16.402344 9.621094 15.179688 C 9.621094 14.679688 9.78125 14.222656 10.054688 13.851562 C 10.070312 13.835938 10.074219 13.808594 10.066406 13.789062 C 10.054688 13.765625 10.03125 13.75 10.007812 13.75 L 2.277344 13.75 C 2.175781 13.75 2.074219 13.710938 1.996094 13.636719 C 1.929688 13.566406 1.886719 13.464844 1.886719 13.363281 C 1.886719 13.144531 2.058594 12.972656 2.277344 12.972656 Z M 2.277344 12.972656 "/>
</g>
</svg>

<svg xmlns="http://www.w3.org/2000/svg" width="22pt" height="22pt" viewBox="0 0 22 22"><defs><radialGradient id="a" gradientUnits="userSpaceOnUse" cx="450.909" cy="189.579" fx="450.909" fy="189.579" r="21.167" gradientTransform="matrix(0 -.05372 -.09669 0 29.927 41.88)"><stop offset="0" stop-opacity=".314"/><stop offset=".222" stop-opacity=".275"/><stop offset="1" stop-opacity="0"/></radialGradient><radialGradient id="b" gradientUnits="userSpaceOnUse" cx="450.909" cy="189.579" fx="450.909" fy="189.579" r="21.167" gradientTransform="matrix(0 .05372 .09669 0 -6.278 -7.017)"><stop offset="0" stop-opacity=".314"/><stop offset=".222" stop-opacity=".275"/><stop offset="1" stop-opacity="0"/></radialGradient><radialGradient id="c" gradientUnits="userSpaceOnUse" cx="450.909" cy="189.579" fx="450.909" fy="189.579" r="21.167" gradientTransform="matrix(0 -.05372 .09669 0 -6.278 41.88)"><stop offset="0" stop-opacity=".314"/><stop offset=".222" stop-opacity=".275"/><stop offset="1" stop-opacity="0"/></radialGradient><radialGradient id="d" gradientUnits="userSpaceOnUse" cx="450.909" cy="189.579" fx="450.909" fy="189.579" r="21.167" gradientTransform="matrix(0 .05372 -.09669 0 29.927 -7.017)"><stop offset="0" stop-opacity=".314"/><stop offset=".222" stop-opacity=".275"/><stop offset="1" stop-opacity="0"/></radialGradient><linearGradient id="e" gradientUnits="userSpaceOnUse" x1="1040" y1="1535.118" x2="1040" y2="295.118" gradientTransform="rotate(.24) scale(.01137)"><stop offset="0" stop-color="#b0bec5"/><stop offset="1" stop-color="#cfd8dc"/></linearGradient></defs><path d="M11.824 17.43h1.82v-.907h-1.82zm0 0" fill="url(#a)"/><path d="M11.824 17.43h-1.82v.91h1.82zm0 0" fill="url(#b)"/><path d="M11.824 17.43h-1.82v-.907h1.82zm0 0" fill="url(#c)"/><path d="M11.824 17.43h1.82v.91h-1.82zm0 0" fill="url(#d)"/><path d="M10.234 3.379a2.269 2.269 0 0 0-2.277 2.273c0 .512.172.985.453 1.364H4.547a.454.454 0 1 0 0 .91h5.687a2.27 2.27 0 0 0 2.274-2.274 2.268 2.268 0 0 0-2.274-2.273zm7.047 0a2.268 2.268 0 0 0-2.273 2.273c0 .512.168.985.453 1.364H13a2.252 2.252 0 0 1-.719.91h4.547a.442.442 0 0 0 .14-.024 2.268 2.268 0 0 0 2.586-2.25 2.266 2.266 0 0 0-2.273-2.273zm-9.55 5.89a.453.453 0 1 0 0 .906h7.73a2.27 2.27 0 0 0-.453 1.368 2.27 2.27 0 0 0 2.273 2.273 2.268 2.268 0 0 0 2.274-2.273A2.266 2.266 0 0 0 17.28 9.27zm-5.454 3.637a.454.454 0 1 0 0 .91h7.727c-.281.38-.45.852-.45 1.364a2.266 2.266 0 0 0 2.274 2.273 2.268 2.268 0 0 0 2.274-2.273 2.27 2.27 0 0 0-2.274-2.274zm0 0" fill="url(#e)"/><path d="M10.234 3.379a2.269 2.269 0 0 0-2.277 2.273c0 .035.004.067.004.102a2.271 2.271 0 0 1 2.273-2.172 2.27 2.27 0 0 1 2.27 2.172c.004-.035.004-.066.004-.102a2.268 2.268 0 0 0-2.274-2.273zm7.047 0a2.268 2.268 0 0 0-2.27 2.375 2.268 2.268 0 0 1 2.27-2.172c1.227 0 2.219.961 2.274 2.172v-.102A2.266 2.266 0 0 0 17.28 3.38zM4.547 7.016a.453.453 0 0 0-.442.558.452.452 0 0 1 .442-.351H8.41a3.791 3.791 0 0 1-.137-.207zm8.453 0a2.252 2.252 0 0 1-.719.91h.239c.203-.203.367-.442.48-.703h2.46c-.05-.067-.093-.137-.136-.207zM7.73 9.27a.451.451 0 0 0-.44.554.456.456 0 0 1 .44-.351h9.551c1.227 0 2.219.96 2.274 2.172v-.102A2.266 2.266 0 0 0 17.28 9.27zm7.594 1.113a2.283 2.283 0 0 0-.312 1.262c.02-.473.183-.907.449-1.262zM2.277 12.906a.454.454 0 0 0-.445.559.453.453 0 0 1 .445-.352h9.551c1.223 0 2.219.957 2.27 2.168.004-.031.004-.066.004-.101a2.27 2.27 0 0 0-2.274-2.274zm7.59 1.117c-.199.336-.312.735-.312 1.157v.101c.023-.472.187-.906.449-1.258zm0 0" fill="#fefefe" fill-opacity=".392"/><path d="M7.96 5.535c0 .04-.003.078-.003.117 0 .414.113.801.305 1.137h.148a2.29 2.29 0 0 1-.45-1.254zm7.052 0c-.004.04-.004.078-.004.117 0 .414.11.801.305 1.137h.148a2.29 2.29 0 0 1-.45-1.254zm-2.508.004a2.271 2.271 0 0 1-2.27 2.16H4.547a.456.456 0 0 1-.442-.344.558.558 0 0 0-.011.114c0 .254.203.457.453.457h5.687a2.27 2.27 0 0 0 2.274-2.274c0-.039 0-.078-.004-.113zm7.05 0a2.272 2.272 0 0 1-2.585 2.137.442.442 0 0 1-.14.023h-4.286a2.42 2.42 0 0 1-.262.227h4.547a.442.442 0 0 0 .14-.024 2.268 2.268 0 0 0 2.586-2.25V5.54zM7.29 9.61a.53.53 0 0 0-.012.114c0 .25.203.453.453.453h7.582a2.05 2.05 0 0 1 .149-.227H7.73a.457.457 0 0 1-.442-.34zm12.266 1.82a2.272 2.272 0 0 1-2.274 2.16 2.269 2.269 0 0 1-2.27-2.16c-.003.036-.003.075-.003.114a2.27 2.27 0 0 0 2.273 2.273 2.268 2.268 0 0 0 2.274-2.273v-.113zm-17.72 1.817c-.007.04-.015.074-.015.113 0 .254.203.457.457.457h7.578a3.24 3.24 0 0 1 .149-.226H2.277a.453.453 0 0 1-.441-.344zm12.263 1.82a2.266 2.266 0 0 1-2.27 2.16 2.272 2.272 0 0 1-2.273-2.16v.114a2.266 2.266 0 0 0 2.273 2.273 2.268 2.268 0 0 0 2.274-2.273c0-.04 0-.075-.004-.114zm0 0" fill-opacity=".235"/><path d="M10.234 3.313a2.334 2.334 0 0 0-2.34 2.34c0 .48.145.925.395 1.296H4.547a.52.52 0 1 0 0 1.04h5.687a2.332 2.332 0 0 0 2.336-2.337 2.333 2.333 0 0 0-2.336-2.34zm7.047 0a2.333 2.333 0 0 0-2.336 2.34c0 .48.145.925.39 1.296H13a.068.068 0 0 0-.059.04 2.194 2.194 0 0 1-.699.886c-.02.016-.027.043-.02.07a.059.059 0 0 0 .06.043h4.546c.05 0 .098-.008.14-.02a2.333 2.333 0 0 0 2.652-2.316 2.334 2.334 0 0 0-2.339-2.34zm-7.047.128c1.223 0 2.207.985 2.207 2.211a2.202 2.202 0 0 1-2.207 2.207H4.547a.39.39 0 0 1-.39-.39c0-.215.175-.39.39-.39H8.41a.06.06 0 0 0 .059-.036c.011-.02.008-.047-.008-.066a2.216 2.216 0 0 1-.438-1.325c0-1.226.985-2.21 2.211-2.21zm7.047 0c1.227 0 2.211.985 2.211 2.211a2.203 2.203 0 0 1-2.21 2.207c-.102 0-.208-.007-.305-.02-.012 0-.02 0-.032.005a.37.37 0 0 1-.117.015h-4.367c.246-.214.445-.48.582-.78h2.418a.064.064 0 0 0 .059-.036.068.068 0 0 0-.008-.066 2.19 2.19 0 0 1-.438-1.325c0-1.226.985-2.21 2.207-2.21zm-9.55 5.762a.522.522 0 0 0-.52.52c0 .285.234.52.52.52h7.605c-.246.37-.39.816-.39 1.3a2.332 2.332 0 0 0 2.335 2.336 2.333 2.333 0 0 0 2.34-2.336 2.334 2.334 0 0 0-2.34-2.34zm0 .129h9.55c1.227 0 2.211.984 2.211 2.211a2.203 2.203 0 0 1-2.21 2.207 2.202 2.202 0 0 1-2.208-2.207c0-.5.16-.957.438-1.328.015-.02.015-.043.008-.067a.064.064 0 0 0-.06-.035H7.73a.39.39 0 0 1-.39-.39.39.39 0 0 1 .39-.391zM2.276 12.84a.52.52 0 1 0 0 1.039h7.606a2.336 2.336 0 0 0 1.945 3.64 2.336 2.336 0 0 0 2.336-2.34 2.336 2.336 0 0 0-2.336-2.34zm0 .129h9.551c1.223 0 2.207.984 2.207 2.21 0 1.227-.984 2.212-2.207 2.212a2.204 2.204 0 0 1-2.21-2.211c0-.5.163-.957.44-1.325a.074.074 0 0 0 .005-.07.067.067 0 0 0-.06-.035H2.278a.387.387 0 0 1-.39-.39.39.39 0 0 1 .39-.391zm0 0" fill="#212121"/></svg>
